src/assets/outline/SmartHome.svg

<svg width="24" height="24" viewBox="0 0 24 24"  xmlns="http://www.w3.org/2000/svg">
<path d="M17.5998 22.5599H11.3998C10.9898 22.5599 10.6498 22.2199 10.6498 21.8099C10.6498 21.3999 10.9898 21.0599 11.3998 21.0599H17.5998C18.6698 21.0599 19.7198 20.1698 19.8998 19.1098L21.2298 11.1499C21.3498 10.4299 20.9499 9.39979 20.3899 8.94979L13.4598 3.40987C12.6598 2.76987 11.3298 2.76986 10.5398 3.39986L3.60982 8.94979C3.03982 9.40979 2.64982 10.4299 2.76982 11.1499L3.04982 12.8398C3.11982 13.2498 2.83983 13.6398 2.42983 13.6998C2.01983 13.7798 1.63984 13.4898 1.56984 13.0798L1.28984 11.3999C1.07984 10.1599 1.67985 8.56987 2.66985 7.77987L9.59984 2.22982C10.9398 1.14982 13.0498 1.15983 14.3998 2.23983L21.3298 7.77987C22.3098 8.56987 22.9098 10.1599 22.7098 11.3999L21.3798 19.3598C21.0798 21.1298 19.3898 22.5599 17.5998 22.5599Z" />
<path d="M5.00022 22.75C4.59022 22.75 4.26022 22.42 4.25022 22.02C4.22022 20.67 3.33023 19.78 1.98023 19.75C1.57023 19.74 1.24022 19.4 1.25022 18.98C1.26022 18.57 1.59022 18.25 2.00022 18.25C2.01022 18.25 2.01021 18.25 2.02021 18.25C4.17021 18.3 5.71022 19.83 5.75022 21.98C5.76022 22.39 5.43021 22.74 5.02021 22.75C5.01021 22.75 5.01022 22.75 5.00022 22.75Z" />
<path d="M8.00022 22.75C7.59022 22.75 7.25022 22.42 7.25022 22.01C7.24021 21.35 7.13021 20.72 6.93021 20.13C6.42021 18.67 5.33021 17.5899 3.87021 17.0699C3.28021 16.8599 2.65021 16.75 1.99021 16.75C1.58021 16.75 1.24022 16.41 1.25022 15.99C1.25022 15.58 1.59022 15.25 2.00022 15.25H2.01022C2.84022 15.26 3.63021 15.4 4.37021 15.66C6.26021 16.33 7.67021 17.74 8.34021 19.63C8.60021 20.37 8.74021 21.17 8.75022 21.99C8.75022 22.41 8.42022 22.75 8.00022 22.75C8.00022 22.75 8.01022 22.75 8.00022 22.75Z" />
<path d="M2 23C1.44 23 1 22.55 1 22C1 21.45 1.45 21 2 21C2.55 21 3 21.45 3 22C3 22.55 2.56 23 2 23Z" />
</svg>

<?xml version="1.0" encoding="UTF-8"?>
<svg width="24" height="24" viewBox="0 0 24 24" xmlns="http://www.w3.org/2000/svg">
 <path d="m17.6 22.56h-6.2c-0.41 0-0.75-0.34-0.75-0.75s0.34-0.75 0.75-0.75h6.2c1.07 0 2.12-0.8901 2.3-1.9501l1.33-7.9599c0.12-0.72-0.2799-1.7501-0.8399-2.2001l-6.9301-5.5399c-0.8-0.64-2.13-0.64001-2.92-0.01001l-6.93 5.5499c-0.57 0.46-0.96 1.4801-0.84 2.2001l0.28 1.6899c0.07 0.41-0.20999 0.8-0.61999 0.86-0.41 0.08-0.78999-0.21-0.85999-0.62l-0.28-1.6799c-0.21-1.24 0.39001-2.83 1.38-3.62l6.93-5.55c1.34-1.08 3.45-1.07 4.8 0.01001l6.93 5.54c0.98 0.79 1.58 2.38 1.38 3.62l-1.33 7.9599c-0.3 1.77-1.99 3.2001-3.78 3.2001z"/>
 <path d="m5.0002 22.75c-0.41 0-0.74-0.33-0.75-0.73-0.03-1.35-0.91999-2.24-2.27-2.27-0.41-0.01-0.74001-0.35-0.73001-0.77 0.01-0.41 0.34-0.73 0.75-0.73h0.01999c2.15 0.05 3.69 1.58 3.73 3.73 0.01 0.41-0.32001 0.76-0.73001 0.77h-0.01999z"/>
 <path d="m8.0002 22.75c-0.41 0-0.75-0.33-0.75-0.74-0.01001-0.66-0.12001-1.29-0.32001-1.88-0.51-1.46-1.6-2.5401-3.06-3.0601-0.59-0.21-1.22-0.3199-1.88-0.3199-0.41 0-0.74999-0.34-0.73999-0.76 0-0.41 0.34-0.74 0.75-0.74h0.01c0.83 0.01 1.62 0.15 2.36 0.41 1.89 0.67 3.3 2.08 3.97 3.97 0.26 0.74 0.4 1.54 0.41001 2.36 0 0.42-0.33 0.76-0.75 0.76 0 0 0.01 0 0 0z"/>
 <path d="m2 23c-0.56 0-1-0.45-1-1s0.45-1 1-1 1 0.45 1 1-0.44 1-1 1z"/>
</svg>
